public/images/logoflux-white.svg

<svg width="970" height="280" viewBox="0 0 970 280" fill="none" xmlns="http://www.w3.org/2000/svg">
<path d="M70.041 0.861495C46.8274 1.36179 46.4272 1.36178 40.8239 4.16342C33.8198 7.56541 26.9158 14.9697 21.4125 24.9756C19.2112 29.078 13.4078 39.284 8.70509 47.5888C3.90228 55.9937 0 63.0979 0 63.3981C0 63.6983 53.031 63.7983 117.869 63.6983C253.248 63.3981 240.741 64.2986 251.647 53.3922C257.551 47.4888 260.052 43.4864 275.461 15.8703C279.263 8.96623 282.765 2.86266 283.366 2.16225C283.966 1.46184 283.866 0.761433 283.166 0.361198C281.965 -0.339211 109.164 0.0610267 70.041 0.861495Z" fill="url(#paint0_linear_194_1474)"/>
<path d="M119.169 77.0057C95.8555 81.6084 76.3441 97.0174 66.3382 118.93C61.3353 129.737 59.7344 137.341 59.6343 149.448C59.4342 167.659 61.7355 173.962 79.7461 205.481C81.9474 209.283 86.9503 218.088 90.8526 224.992C98.0568 237.8 120.27 276.322 121.971 279.024C122.771 280.325 123.071 280.325 124.272 279.024C126.974 276.122 149.887 235.498 151.988 229.695C154.89 221.59 154.79 212.885 151.588 204.38C150.187 200.678 148.686 197.176 148.186 196.576C146.285 194.174 116.067 140.943 116.067 139.943C116.067 139.242 128.375 138.942 153.589 138.942H191.111L197.715 136.34C208.021 132.138 211.723 127.635 226.632 101.42C233.836 88.8126 239.74 77.9062 239.94 77.2058C240.24 76.1052 229.734 75.905 181.906 76.0051C149.787 76.1052 121.571 76.5054 119.169 77.0057Z" fill="url(#paint1_linear_194_1474)"/>
<path d="M376.16 6.99944C358.96 11.3994 346.293 20.9994 338.693 35.3994C332.427 47.1328 329.76 58.9994 328.56 78.3328L327.76 93.6661L314.827 93.1328L301.76 92.7328V112.199V131.666H315.093H328.427L328.693 203.266L329.093 274.999H353.093H377.093L377.493 203.266L377.76 131.666H400.427H423.093V112.199V92.8661L416.827 92.9994C413.227 93.1328 403.093 93.1328 394.16 93.1328L377.76 92.9994V80.4661C377.76 62.4661 381.627 53.2661 391.36 48.1994C396.427 45.5328 409.36 45.9328 419.227 48.9994C423.893 50.3328 427.893 51.2661 428.16 50.9994C429.093 50.0661 436.16 14.9994 435.627 14.0661C435.227 13.5328 430.027 11.5328 424.027 9.53277C410.293 5.13277 388.027 3.93277 376.16 6.99944Z" fill="#FFFFFF"/>
<path d="M453.922 124.333C454.322 242.466 454.322 243.666 457.122 249.799C464.855 266.466 480.589 274.999 503.389 274.999C519.922 274.999 544.989 268.999 546.589 264.599C547.389 262.733 542.455 230.066 541.255 228.866C541.122 228.599 537.922 229.266 534.322 230.333C524.589 233.266 513.522 232.999 509.122 229.533C501.389 223.399 501.655 228.599 501.655 112.466V5.79944L477.655 5.39944L453.655 4.99945L453.922 124.333Z" fill="#FFFFFF"/>
<path d="M695.209 140.999C694.809 196.333 694.676 201.399 692.276 205.933C687.876 214.999 679.876 222.733 669.609 227.799C647.076 238.866 626.543 233.666 618.009 214.733L614.809 207.666L614.409 144.599L614.009 81.6661H589.343H564.676L565.076 151.266C565.609 227.533 565.609 227.533 574.009 244.066C578.276 252.599 589.476 263.933 597.876 268.199C606.809 272.733 617.876 274.999 631.476 274.999C657.209 274.866 675.076 268.066 692.809 251.399L703.076 241.666L703.876 249.799C705.343 266.733 714.943 274.066 736.143 274.199C742.809 274.199 749.743 273.799 751.876 273.266L755.476 272.333V252.999C755.476 233.799 755.476 233.533 752.276 232.333C744.676 229.533 744.809 231.399 744.809 153.399V81.7994L720.143 81.3994L695.609 80.9994L695.209 140.999Z" fill="#FFFFFF"/>
<path d="M775.609 84.1994C775.343 84.3328 779.076 90.0661 784.009 96.8661C812.676 136.466 840.676 175.666 841.209 177.133C841.476 177.933 826.409 200.199 807.609 226.466L773.476 274.333L800.543 274.733C822.943 274.999 827.876 274.733 828.943 273.133C829.609 272.066 839.476 257.666 850.676 241.133C861.876 224.599 871.476 210.999 872.009 210.999C872.543 211.133 881.076 223.133 890.943 237.933C900.809 252.733 910.543 267.133 912.676 269.933L916.276 274.999H943.076C964.009 274.999 969.743 274.599 969.209 273.266C968.943 272.466 953.476 250.466 935.076 224.733L901.476 177.666L905.343 172.733C907.476 169.933 920.943 151.133 935.343 130.999C949.609 110.866 962.943 92.3328 964.809 89.7994C966.676 87.2661 968.276 84.8661 968.276 84.4661C968.276 84.0661 956.143 83.7994 941.343 84.0661L914.276 84.4661L893.609 115.133C882.409 132.066 872.676 146.066 872.143 146.333C871.743 146.733 862.143 132.866 850.809 115.666L830.276 84.4661L803.209 84.0661C788.276 83.7994 775.876 83.9328 775.609 84.1994Z" fill="#FFFFFF"/>
<defs>
<linearGradient id="paint0_linear_194_1474" x1="283.76" y1="31.8679" x2="-437.381" y2="31.8679" gradientUnits="userSpaceOnUse">
<stop offset="0.184799" stop-color="#1B4FFF"/>
<stop offset="0.921794" stop-color="#102F99"/>
</linearGradient>
<linearGradient id="paint1_linear_194_1474" x1="239.946" y1="177.991" x2="-218.322" y2="177.991" gradientUnits="userSpaceOnUse">
<stop offset="0.184799" stop-color="#1B4FFF"/>
<stop offset="0.921794" stop-color="#102F99"/>
</linearGradient>
</defs>
</svg>

<svg xmlns="http://www.w3.org/2000/svg" width="970" height="280" fill="none" viewBox="0 0 970 280"><path fill="url(#a)" d="M70.041.861c-23.214.5-23.614.5-29.217 3.302C33.82 7.565 26.916 14.97 21.413 24.976c-2.202 4.102-8.005 14.308-12.708 22.613C3.902 55.994 0 63.098 0 63.399c0 .3 53.031.4 117.869.3 135.379-.3 122.872.6 133.778-10.307 5.904-5.903 8.405-9.906 23.814-37.522 3.802-6.904 7.304-13.007 7.905-13.708.6-.7.5-1.4-.2-1.8-1.201-.701-174.002-.301-213.125.5"/><path fill="url(#b)" d="M119.169 77.006c-23.313 4.602-42.825 20.011-52.83 41.924-5.004 10.807-6.605 18.411-6.705 30.518-.2 18.211 2.102 24.514 20.112 56.033 2.201 3.802 7.204 12.607 11.107 19.511 7.204 12.808 29.417 51.33 31.118 54.032.8 1.301 1.1 1.301 2.301 0 2.702-2.902 25.615-43.526 27.716-49.329 2.902-8.105 2.802-16.81-.4-25.315-1.401-3.702-2.902-7.204-3.402-7.804-1.901-2.402-32.119-55.633-32.119-56.633 0-.701 12.308-1.001 37.522-1.001h37.522l6.604-2.602c10.306-4.202 14.008-8.705 28.917-34.92 7.204-12.607 13.108-23.514 13.308-24.214.3-1.1-10.206-1.301-58.034-1.2-32.119.1-60.335.5-62.737 1"/><path fill="#fff" d="M376.16 7c-17.2 4.4-29.867 14-37.467 28.4-6.266 11.733-8.933 23.6-10.133 42.933l-.8 15.333-12.933-.533-13.067-.4v38.933h26.667l.266 71.6.4 71.733h48l.4-71.733.267-71.6h45.333v-38.8l-6.266.133c-3.6.134-13.734.134-22.667.134l-16.4-.134V80.466c0-18 3.867-27.2 13.6-32.267 5.067-2.666 18-2.266 27.867.8 4.666 1.334 8.666 2.267 8.933 2 .933-.933 8-36 7.467-36.933-.4-.533-5.6-2.533-11.6-4.533-13.734-4.4-36-5.6-47.867-2.534M453.922 124.333c.4 118.133.4 119.333 3.2 125.466 7.733 16.667 23.467 25.2 46.267 25.2 16.533 0 41.6-6 43.2-10.4.8-1.866-4.134-34.533-5.334-35.733-.133-.267-3.333.4-6.933 1.467-9.733 2.933-20.8 2.666-25.2-.8-7.733-6.134-7.467-.934-7.467-117.067V5.799l-24-.4-24-.4zM695.209 140.999c-.4 55.334-.533 60.4-2.933 64.934-4.4 9.066-12.4 16.8-22.667 21.866-22.533 11.067-43.066 5.867-51.6-13.066l-3.2-7.067-.4-63.067-.4-62.933h-49.333l.4 69.6c.533 76.267.533 76.267 8.933 92.8 4.267 8.533 15.467 19.867 23.867 24.133 8.933 4.534 20 6.8 33.6 6.8 25.733-.133 43.6-6.933 61.333-23.6l10.267-9.733.8 8.133c1.467 16.934 11.067 24.267 32.267 24.4 6.666 0 13.6-.4 15.733-.933l3.6-.933v-19.334c0-19.2 0-19.466-3.2-20.666-7.6-2.8-7.467-.934-7.467-78.934v-71.6l-24.666-.4-24.534-.4zM775.609 84.2c-.266.133 3.467 5.866 8.4 12.666 28.667 39.6 56.667 78.8 57.2 80.267.267.8-14.8 23.066-33.6 49.333l-34.133 47.867 27.067.4c22.4.266 27.333 0 28.4-1.6.666-1.067 10.533-15.467 21.733-32s20.8-30.134 21.333-30.134c.534.134 9.067 12.134 18.934 26.934 9.866 14.8 19.6 29.2 21.733 32l3.6 5.066h26.8c20.933 0 26.667-.4 26.133-1.733-.266-.8-15.733-22.8-34.133-48.533l-33.6-47.067 3.867-4.933c2.133-2.8 15.6-21.6 30-41.734 14.266-20.133 27.6-38.666 29.466-41.2 1.867-2.533 3.467-4.933 3.467-5.333s-12.133-.667-26.933-.4l-27.067.4-20.667 30.667c-11.2 16.933-20.933 30.933-21.466 31.2-.4.4-10-13.467-21.334-30.667l-20.533-31.2-27.067-.4c-14.933-.267-27.333-.133-27.6.133"/><defs><linearGradient id="a" x1="283.76" x2="-437.381" y1="31.868" y2="31.868" gradientUnits="userSpaceOnUse"><stop offset=".185" stop-color="#1b4fff"/><stop offset=".922" stop-color="#102f99"/></linearGradient><linearGradient id="b" x1="239.946" x2="-218.322" y1="177.991" y2="177.991" gradientUnits="userSpaceOnUse"><stop offset=".185" stop-color="#1b4fff"/><stop offset=".922" stop-color="#102f99"/></linearGradient></defs></svg>
